X: 19
T: Monaghan, The
Z: jond
S: https://thesession.org/tunes/67#setting53437
R: jig
M: 6/8
L: 1/8
K: Edor
|:BEE E3|BGE FGA|BEE B3|AFD FGA|
BEE E3|BGE FGA| dcd BAG|~F3 AFD:|
|:EGB efg|fed eBG|EFG BGE|~F3 AFD|
EGB efg|fed edc| dcd BAG|~F3 AFD:|
|:~g3 edB|g2a bge|gag fge|~f3 dfa|
~g3 edB|g2a bge| dcd BAG|~F3 AFD:|
|:EGB eBG|BGE ~F3|EGB eBG|~F3 AFD|
EGB GBd|Bdg efg|ded BAG| ~F3 AFD:|

%-------------------- TUNE SEPARATOR --------------------%

